public/icons/mngo.svg

<svg width="32" height="32" viewBox="0 0 32 32" fill="none" xmlns="http://www.w3.org/2000/svg">
<path fill-rule="evenodd" clip-rule="evenodd" d="M15.5043 7.44197C15.5044 7.44175 15.5046 7.44149 15.5048 7.44126C16.8509 8.13196 18.324 8.36863 19.7335 8.36455C20.5526 9.11682 21.234 10.0004 21.8743 10.9077C22.1398 11.2867 22.3792 11.6833 22.5909 12.0948C23.0805 13.0376 23.4406 14.0351 23.805 15.0444C23.9118 15.3404 24.019 15.6375 24.13 15.9344C24.1647 16.0615 24.2011 16.1887 24.2389 16.3159L24.2409 16.3154C24.8036 18.2454 25.6253 20.3071 26.7262 22.0094L26.7252 22.0098C27.0893 22.569 27.4972 23.0985 27.9452 23.5933C28.0333 23.6887 28.1234 23.7831 28.2137 23.8777L28.2137 23.8777L28.2138 23.8777L28.2139 23.8778C28.6356 24.3196 29.0602 24.7645 29.301 25.3212C29.6007 26.0149 29.5777 26.8128 29.3974 27.5469C28.5468 31.007 25.2146 31.9162 22.0301 32.0001L22.0316 31.9961C20.8376 32.0199 19.6518 31.9309 18.6003 31.8231C18.6003 31.8231 13.5291 31.2982 9.23061 28.1556L9.09188 28.0525C9.09188 28.0525 9.09188 28.0525 9.09191 28.0524C8.59017 27.6785 8.1115 27.2746 7.65854 26.8428C6.45371 25.6929 5.38168 24.3886 4.56189 22.9568C4.56738 22.9513 4.57284 22.9458 4.57833 22.9403C4.48129 22.7657 4.38825 22.5893 4.29927 22.4111C3.50618 20.8238 3.02284 19.096 3.00096 17.2594C2.96364 14.1777 4.0179 11.0218 6.02186 8.73375C6.02112 8.73186 6.02041 8.72996 6.01971 8.72807C7.10472 7.53957 8.4609 6.6059 10.0663 6.07433C11.0728 5.73803 12.1295 5.57656 13.1904 5.59693C13.8361 6.35503 14.6217 6.98144 15.5043 7.44197ZM13.034 27.6051C13.7595 27.3403 14.4468 26.9841 15.0878 26.5453C14.4428 26.9811 13.7545 27.3375 13.034 27.6051Z" fill="url(#paint0_linear)"/>
<path fill-rule="evenodd" clip-rule="evenodd" d="M26.0299 4.9315C26.0304 4.9315 26.0309 4.9315 26.0314 4.93147L26.0752 4.90327C20.4213 -4.74132 13.0283 2.85194 13.0283 2.85194L13.0389 2.87053C13.0384 2.87064 13.038 2.87075 13.0376 2.87086C17.2888 10.3244 25.3683 5.35657 26.0299 4.9315Z" fill="url(#paint1_linear)"/>
<path d="M19.0212 21.5435C17.4632 25.2678 14.4719 27.7339 10.8478 28.1074C10.7699 28.1178 9.77798 28.1961 9.23047 28.1556C13.529 31.2983 18.6002 31.8232 18.6002 31.8232C19.6859 31.9345 20.9149 32.0257 22.1483 31.9935C22.5826 30.8595 22.8271 29.5612 22.757 28.0881C22.5941 24.6669 24.5779 22.9105 26.7261 22.0094C25.6251 20.3072 24.8035 18.2455 24.2408 16.3154C22.5633 16.7617 20.433 18.165 19.0212 21.5435Z" fill="url(#paint2_linear)"/>
<path d="M22.6894 28.0638C22.7599 29.5368 22.4646 30.8659 22.0303 31.9999C25.2148 31.9161 28.547 31.0069 29.3976 27.5467C29.5779 26.8126 29.6009 26.0147 29.3011 25.321C29.0088 24.6452 28.4454 24.134 27.9453 23.5932C27.4775 23.0764 27.0534 22.5218 26.6771 21.9351C24.5308 22.8365 22.5266 24.643 22.6894 28.0638Z" fill="url(#paint3_linear)"/>
<path d="M24.1304 15.9341C23.6411 14.6246 23.2245 13.3137 22.5913 12.0944C22.3796 11.683 22.1402 11.2864 21.8747 10.9074C21.2344 10.0001 20.553 9.11648 19.734 8.3642C18.3244 8.36828 16.8513 8.13162 15.5052 7.44092C14.1416 9.37503 12.5814 12.656 14.0095 16.4011C16.1184 21.9319 11.8388 25.7118 9.09229 28.0521L9.23102 28.1552C9.74596 28.1954 10.2635 28.188 10.7771 28.133C14.4009 27.7591 17.5654 25.2337 19.1234 21.5097C20.5356 18.1312 22.5899 16.8477 24.265 16.4011C24.2178 16.2453 24.1729 16.0896 24.1304 15.9341Z" fill="url(#paint4_linear)"/>
<path d="M6.1692 8.56934C4.06965 10.8692 2.96275 14.1035 3.00096 17.2599C3.02284 19.0964 3.50618 20.8243 4.29927 22.4116C4.41823 22.6497 4.54435 22.8846 4.67763 23.1164C9.09151 18.6858 7.49682 12.084 6.1692 8.56934Z" fill="url(#paint5_linear)"/>
<path d="M14.0839 16.4014C12.6558 12.6549 14.1811 9.3954 15.5428 7.46167C14.6448 6.99936 13.8459 6.3659 13.1911 5.59693C12.1301 5.57656 11.0734 5.73803 10.067 6.07433C8.4615 6.6059 7.10533 7.53957 6.02031 8.72807C7.31862 12.1656 8.87882 18.6234 4.5625 22.9568C5.38229 24.3886 6.45432 25.6929 7.65915 26.8428C8.13437 27.2958 8.63789 27.7182 9.16667 28.1074C11.9131 25.7682 16.1927 21.9322 14.0839 16.4014Z" fill="url(#paint6_linear)"/>
<path d="M19.409 3.46675C22.3977 4.64598 24.4909 4.96536 26.0085 4.91974L26.0522 4.89155C20.3983 -4.75303 13.0054 2.84022 13.0054 2.84022L13.0161 2.85914C14.6108 2.57648 16.9285 2.48856 19.409 3.46675Z" fill="url(#paint7_linear)"/>
<path d="M19.4456 3.40024C16.9666 2.42354 14.6356 2.46064 13.0142 2.8594C17.2656 10.3132 25.3455 5.34474 26.0065 4.92001C24.4879 4.96563 22.4343 4.57948 19.4456 3.40024Z" fill="url(#paint8_linear)"/>
<defs>
<linearGradient id="paint0_linear" x1="-0.30713" y1="10.1206" x2="34.2649" y2="30.8379" gradientUnits="userSpaceOnUse">
<stop stop-color="#E54033"/>
<stop offset="0.489583" stop-color="#FECA1A"/>
<stop offset="1" stop-color="#AFD803"/>
</linearGradient>
<linearGradient id="paint1_linear" x1="9782.27" y1="1155.64" x2="7617.95" y2="-1070.67" gradientUnits="userSpaceOnUse">
<stop offset="0.15" stop-color="#6CBF00"/>
<stop offset="1" stop-color="#AFD803"/>
</linearGradient>
<linearGradient id="paint2_linear" x1="5.66235" y1="28.4168" x2="27.3255" y2="23.1494" gradientUnits="userSpaceOnUse">
<stop offset="0.21" stop-color="#E54033"/>
<stop offset="0.84" stop-color="#FECA1A"/>
</linearGradient>
<linearGradient id="paint3_linear" x1="22.7302" y1="26.9554" x2="29.4146" y2="27.0055" gradientUnits="userSpaceOnUse">
<stop stop-color="#FECA1A"/>
<stop offset="0.4" stop-color="#FECA1A"/>
<stop offset="1" stop-color="#AFD803"/>
</linearGradient>
<linearGradient id="paint4_linear" x1="7.59997" y1="28.5514" x2="21.3045" y2="9.99784" gradientUnits="userSpaceOnUse">
<stop offset="0.16" stop-color="#E54033"/>
<stop offset="0.84" stop-color="#FECA1A"/>
</linearGradient>
<linearGradient id="paint5_linear" x1="5.60388" y1="10.1169" x2="4.99701" y2="22.1007" gradientUnits="userSpaceOnUse">
<stop stop-color="#FECA1A"/>
<stop offset="0.76" stop-color="#E54033"/>
</linearGradient>
<linearGradient id="paint6_linear" x1="12.3086" y1="7.00466" x2="8.64846" y2="20.9029" gradientUnits="userSpaceOnUse">
<stop offset="0.16" stop-color="#FECA1A"/>
<stop offset="1" stop-color="#E54033"/>
</linearGradient>
<linearGradient id="paint7_linear" x1="13.7261" y1="0.350433" x2="27.2779" y2="5.34558" gradientUnits="userSpaceOnUse">
<stop offset="0.15" stop-color="#6CBF00"/>
<stop offset="1" stop-color="#AFD803"/>
</linearGradient>
<linearGradient id="paint8_linear" x1="9782.24" y1="1155.63" x2="7617.92" y2="-1070.68" gradientUnits="userSpaceOnUse">
<stop offset="0.15" stop-color="#6CBF00"/>
<stop offset="1" stop-color="#AFD803"/>
</linearGradient>
</defs>
</svg>

<svg width="32" height="32" fill="none" xmlns="http://www.w3.org/2000/svg"><path fill-rule="evenodd" clip-rule="evenodd" d="M15.504 7.442c1.347.69 2.82.927 4.23.923.819.752 1.5 1.635 2.14 2.543.266.379.505.775.717 1.187.49.943.85 1.94 1.214 2.95.107.295.214.592.325.89.035.126.071.254.109.38h.002c.563 1.93 1.384 3.992 2.485 5.694a12.613 12.613 0 0 0 1.488 1.869c.422.442.846.887 1.087 1.443.3.694.277 1.492.096 2.226-.85 3.46-4.182 4.37-7.367 4.453l.002-.004c-1.194.024-2.38-.065-3.432-.173 0 0-5.07-.525-9.37-3.667l-.138-.104c-.502-.373-.98-.777-1.433-1.21-1.205-1.15-2.277-2.453-3.097-3.885l.016-.017c-.097-.174-.19-.35-.279-.529-.793-1.587-1.276-3.315-1.298-5.152-.037-3.081 1.017-6.237 3.02-8.525a.329.329 0 0 1-.001-.006c1.085-1.188 2.44-2.122 4.046-2.654a9.295 9.295 0 0 1 3.124-.477 7.747 7.747 0 0 0 2.314 1.845Zm-2.47 20.163a9.243 9.243 0 0 0 2.054-1.06 9.706 9.706 0 0 1-2.054 1.06Z" fill="url(#a)"/><path fill-rule="evenodd" clip-rule="evenodd" d="M26.03 4.931h.001l.044-.028C20.421-4.74 13.028 2.852 13.028 2.852l.01.019c4.25 7.453 12.33 2.486 12.992 2.06Z" fill="url(#b)"/><path d="M19.021 21.544c-1.558 3.724-4.55 6.19-8.173 6.563-.078.01-1.07.09-1.618.049 4.299 3.142 9.37 3.667 9.37 3.667 1.086.111 2.315.203 3.548.17a9.54 9.54 0 0 0 .609-3.905c-.163-3.421 1.82-5.178 3.97-6.079-1.102-1.702-1.924-3.764-2.486-5.694-1.678.447-3.808 1.85-5.22 5.229Z" fill="url(#c)"/><path d="M22.69 28.064c.07 1.473-.225 2.802-.66 3.936 3.185-.084 6.517-.993 7.368-4.453.18-.734.203-1.532-.097-2.226-.292-.676-.856-1.187-1.356-1.728a12.637 12.637 0 0 1-1.268-1.658c-2.146.902-4.15 2.708-3.988 6.129Z" fill="url(#d)"/><path d="M24.13 15.934c-.489-1.31-.905-2.62-1.539-3.84a10.216 10.216 0 0 0-.716-1.187c-.64-.907-1.322-1.79-2.141-2.543-1.41.004-2.883-.232-4.229-.923-1.363 1.934-2.924 5.215-1.496 8.96 2.11 5.53-2.17 9.31-4.917 11.651l.139.103c.515.04 1.033.033 1.546-.022 3.624-.374 6.788-2.9 8.346-6.623 1.413-3.379 3.467-4.662 5.142-5.109a17.762 17.762 0 0 1-.135-.467Z" fill="url(#e)"/><path d="M6.17 8.57c-2.1 2.3-3.207 5.534-3.169 8.69.022 1.836.505 3.564 1.298 5.152.12.238.245.473.379.704 4.414-4.43 2.819-11.032 1.491-14.547Z" fill="url(#f)"/><path d="M14.084 16.401c-1.428-3.746.097-7.006 1.459-8.94a7.745 7.745 0 0 1-2.352-1.864 9.295 9.295 0 0 0-3.124.477C8.461 6.606 7.105 7.54 6.02 8.728c1.299 3.438 2.859 9.895-1.457 14.229.82 1.432 1.891 2.736 3.096 3.886.475.453.979.875 1.508 1.264 2.746-2.339 7.026-6.175 4.917-11.706Z" fill="url(#g)"/><path d="M19.409 3.467c2.989 1.179 5.082 1.498 6.6 1.453l.043-.028C20.398-4.753 13.005 2.84 13.005 2.84l.011.02c1.595-.284 3.912-.371 6.393.607Z" fill="url(#h)"/><path d="M19.446 3.4c-2.48-.976-4.81-.94-6.432-.54 4.252 7.453 12.332 2.485 12.992 2.06-1.518.046-3.572-.34-6.56-1.52Z" fill="url(#i)"/><defs><linearGradient id="a" x1="-.307" y1="10.121" x2="34.265" y2="30.838" gradientUnits="userSpaceOnUse"><stop stop-color="#E54033"/><stop offset=".49" stop-color="#FECA1A"/><stop offset="1" stop-color="#AFD803"/></linearGradient><linearGradient id="b" x1="9782.27" y1="1155.64" x2="7617.95" y2="-1070.67" gradientUnits="userSpaceOnUse"><stop offset=".15" stop-color="#6CBF00"/><stop offset="1" stop-color="#AFD803"/></linearGradient><linearGradient id="c" x1="5.662" y1="28.417" x2="27.326" y2="23.149" gradientUnits="userSpaceOnUse"><stop offset=".21" stop-color="#E54033"/><stop offset=".84" stop-color="#FECA1A"/></linearGradient><linearGradient id="d" x1="22.73" y1="26.955" x2="29.415" y2="27.006" gradientUnits="userSpaceOnUse"><stop stop-color="#FECA1A"/><stop offset=".4" stop-color="#FECA1A"/><stop offset="1" stop-color="#AFD803"/></linearGradient><linearGradient id="e" x1="7.6" y1="28.551" x2="21.305" y2="9.998" gradientUnits="userSpaceOnUse"><stop offset=".16" stop-color="#E54033"/><stop offset=".84" stop-color="#FECA1A"/></linearGradient><linearGradient id="f" x1="5.604" y1="10.117" x2="4.997" y2="22.101" gradientUnits="userSpaceOnUse"><stop stop-color="#FECA1A"/><stop offset=".76" stop-color="#E54033"/></linearGradient><linearGradient id="g" x1="12.309" y1="7.005" x2="8.648" y2="20.903" gradientUnits="userSpaceOnUse"><stop offset=".16" stop-color="#FECA1A"/><stop offset="1" stop-color="#E54033"/></linearGradient><linearGradient id="h" x1="13.726" y1=".35" x2="27.278" y2="5.346" gradientUnits="userSpaceOnUse"><stop offset=".15" stop-color="#6CBF00"/><stop offset="1" stop-color="#AFD803"/></linearGradient><linearGradient id="i" x1="9782.24" y1="1155.63" x2="7617.92" y2="-1070.68" gradientUnits="userSpaceOnUse"><stop offset=".15" stop-color="#6CBF00"/><stop offset="1" stop-color="#AFD803"/></linearGradient></defs></svg>
